X:170
T:Ladus Reel
M:4/4
L:1/8
Z:abc by Bruce Osborne - bosborne@kos.net
K:G
dc|BGGB d2 cB|ADDE FGAc|BGGB d2 cB|cdef g2 dc|!
BGGB d2 cB|ADDE FGAc|BGGB d2 cB|cdef g2:|!
|:BA|G2 gf edcB|Aaag fedc|Bdgf edcB|cdef g2 g2|!
G2 gf edcB|ADDE F2 GA|BGGB cAAg|fdef g2:|!
